svgs/duotone/tombstone.svg

<svg xmlns="http://www.w3.org/2000/svg" viewBox="0 0 448 512"><!--! Font Awesome Pro 6.3.0 by @fontawesome - https://fontawesome.com License - https://fontawesome.com/license (Commercial License) Copyright 2023 Fonticons, Inc. --><defs><style>.fa-secondary{opacity:.4}</style></defs><path class="fa-primary" d="M432 448h-416C7.125 448 0 455.1 0 464v32C0 504.9 7.125 512 16 512h416c8.875 0 16-7.125 16-16v-32C448 455.1 440.9 448 432 448zM144 208l55.99 .0005L200 336c0 8.875 7.125 16 16 16h16c8.875 0 16-7.125 16-16l-.0063-128L304 208C312.9 208 320 200.9 320 192V176C320 167.1 312.9 160 304 160l-56.01-.0005L248 112c0-8.875-7.125-16-16-16h-16c-8.875 0-16 7.125-16 16L199.1 160L144 160C135.1 160 128 167.1 128 176V192C128 200.9 135.1 208 144 208z"/><path class="fa-secondary" d="M223.1 0C117.1 0 31.1 86 31.1 192L32 448h384l-.0012-256C415.1 85.99 329.1 0 223.1 0zM320 192c0 8.875-7.125 16-16 16l-56.01-.0005L248 336c0 8.875-7.125 16-16 16h-16c-8.875 0-16-7.125-16-16L199.1 208L144 208C135.1 208 128 200.9 128 192V176C128 167.1 135.1 160 144 160l55.99 .0005L200 112c0-8.875 7.125-16 16-16h16c8.875 0 16 7.125 16 16l-.0073 47.1L304 160C312.9 160 320 167.1 320 176V192z"/></svg>

<svg xmlns="http://www.w3.org/2000/svg" viewBox="0 0 448 512"><!-- Font Awesome Pro 6.0.0-alpha2 by @fontawesome - https://fontawesome.com License - https://fontawesome.com/license (Commercial License) --><defs><style>.fa-secondary{opacity:.4}</style></defs><path d="M224 0C118 0 32 86 32 192V448H416V192C416 86 330 0 224 0ZM320 192C320 200.875 312.875 208 304 208H248V336C248 344.875 240.875 352 232 352H216C207.125 352 200 344.875 200 336V208H144C135.125 208 128 200.875 128 192V176C128 167.125 135.125 160 144 160H200V112C200 103.125 207.125 96 216 96H232C240.875 96 248 103.125 248 112V160H304C312.875 160 320 167.125 320 176V192Z" class="fa-secondary"/><path d="M432 448H16C7.125 448 0 455.125 0 464V496C0 504.875 7.125 512 16 512H432C440.875 512 448 504.875 448 496V464C448 455.125 440.875 448 432 448ZM144 208H200V336C200 344.875 207.125 352 216 352H232C240.875 352 248 344.875 248 336V208H304C312.875 208 320 200.875 320 192V176C320 167.125 312.875 160 304 160H248V112C248 103.125 240.875 96 232 96H216C207.125 96 200 103.125 200 112V160H144C135.125 160 128 167.125 128 176V192C128 200.875 135.125 208 144 208Z" class="fa-primary"/></svg>
